!!!SOCIAL_FUNCTION:	misc songs
!!!PDT:	1936
!!!OTL: No_68_I_am_Going_to_Marry_Another_Man.krn
!!!REG: Oklahoma and Montana
!!!LANG: Tone
!!!LING_GROUP: Algonquin
**kern
*staff1
=1-
=
*clefF4
*k[b-]
*M2/4
8c\L
8f\J
8c\L
16f\L
16f\JJ
=2
4f\
8g\L
8f\J
=3
*M3/4
8c\L
16c\L
16c\JJ
4c\
8f\L
8c\J
=4
8A\L
16A\L
16A\JJ
(8.A\L
16G\Jk)
8A\L
8G\J
=5
*M2/4
8G\L
8F\J
4F\
=6
4F\
4r
=7
8F\L
8F\J
8F\L
8F\J
=8
4F\
8A\L
8G\J
=9
16G\LK
8.F\J
8.C/L
16D/Jk
=10
4C/
4r
==:|!
*-
